X:468441
T:The Curlew Jig
M:6/8
L:1/8
K:Amix
d3 A2-d|B>AA d>BA|d3 A2-d|B>AA a>ef|d3 A2-d|B>AA d>BA|g2-f e>fd|c>AA a>ef:||!
d3 f2-d|a>ef d>BA|d3 f2-d|a>ca f>ef|d3 f2-d|a>ef d>BA|g2-f e>fd|c>AA a>ef:||!
d3 G>BA|d>Bd e>cA|d3 G>BB|A>ce a>ef|d3 G>BA|d>Bd e>cA|g2-f e>fd|c>AA a>ef:||!
d3 a2-f|d>fd e>ca|d3 a2-f|d>fd a>ef|[1 d3 a2-f|d>fd e>cA|g2-fe>fd|c>AA a>ef:|!
[2 f>ef e>fe|G>Bd ecA|g2-f e<fd|c<AA a>ef||

